src/images/icons/categories/gaming.svg

<svg width="56" height="56" viewBox="0 0 56 56" fill="none" xmlns="http://www.w3.org/2000/svg">
<g clip-path="url(#clip0_138_1571)">
<path d="M46.6666 14H9.33329C6.75596 14 4.66663 16.0893 4.66663 18.6667V37.3333C4.66663 39.9107 6.75596 42 9.33329 42H46.6666C49.244 42 51.3333 39.9107 51.3333 37.3333V18.6667C51.3333 16.0893 49.244 14 46.6666 14Z" stroke="black" stroke-width="2" stroke-linecap="round" stroke-linejoin="round"/>
<path d="M14 28H23.3333M18.6667 23.3333V32.6666" stroke="black" stroke-width="2" stroke-linecap="round" stroke-linejoin="round"/>
<path d="M35 25.6667V25.6909" stroke="black" stroke-width="3" stroke-linecap="round" stroke-linejoin="round"/>
<path d="M42 30.3333V30.3574" stroke="black" stroke-width="3" stroke-linecap="round" stroke-linejoin="round"/>
</g>
<defs>
<clipPath id="clip0_138_1571">
<rect width="56" height="56" fill="white"/>
</clipPath>
</defs>
</svg>

<svg width="56" height="56" fill="none" xmlns="http://www.w3.org/2000/svg"><g clip-path="url(#a)" stroke="#000" stroke-linecap="round" stroke-linejoin="round"><path d="M46.667 14H9.333a4.667 4.667 0 0 0-4.666 4.667v18.666A4.667 4.667 0 0 0 9.333 42h37.334a4.667 4.667 0 0 0 4.666-4.667V18.667A4.667 4.667 0 0 0 46.667 14ZM14 28h9.333m-4.666-4.667v9.334" stroke-width="2"/><path d="M35 25.667v.024M42 30.333v.024" stroke-width="3"/></g><defs><clipPath id="a"><path fill="#fff" d="M0 0h56v56H0z"/></clipPath></defs></svg>
